src/images/telegram-icon.svg

<svg width="31" height="31" viewBox="0 0 31 31" fill="none" xmlns="http://www.w3.org/2000/svg">
<g clip-path="url(#clip0_74_6)">
<circle cx="16.2418" cy="16.2418" r="11.8122" fill="white"/>
<path d="M15.5 31C24.0625 31 31 24.0625 31 15.5C31 6.93754 24.0625 0 15.5 0C6.93754 0 0 6.93754 0 15.5C0 24.0625 6.93754 31 15.5 31ZM7.09254 15.1642L22.0371 9.40204C22.7308 9.15146 23.3365 9.57125 23.1118 10.6201L23.1131 10.6188L20.5685 22.6068C20.3799 23.4567 19.8749 23.6633 19.1683 23.2629L15.2933 20.407L13.4243 22.2076C13.2176 22.4143 13.0432 22.5887 12.6428 22.5887L12.918 18.6452L20.0996 12.1572C20.4122 11.882 20.0299 11.727 19.6178 12.0009L10.7428 17.5886L6.91687 16.3951C6.08633 16.1316 6.06825 15.5646 7.09254 15.1642V15.1642Z" fill="#008DDD"/>
</g>
<defs>
<clipPath id="clip0_74_6">
<rect width="31" height="31" fill="white"/>
</clipPath>
</defs>
</svg>

<svg fill="none" version="1.1" viewBox="0 0 31 31" width="31" height="31" xmlns="http://www.w3.org/2000/svg">
 <g>
  <path d="m28.054 16.242a11.812 11.812 0 0 1-11.812 11.812 11.812 11.812 0 0 1-11.812-11.812 11.812 11.812 0 0 1 11.812-11.812 11.812 11.812 0 0 1 11.812 11.812z" fill="#fff"/>
  <path d="m15.5 31c8.5625 0 15.5-6.9375 15.5-15.5 0-8.5625-6.9375-15.5-15.5-15.5-8.5625 0-15.5 6.9375-15.5 15.5 0 8.5625 6.9375 15.5 15.5 15.5zm-8.4075-15.836 14.945-5.7622c0.6937-0.25058 1.2994 0.16921 1.0747 1.2181l0.0013-0.0013-2.5446 11.988c-0.1886 0.8499-0.6936 1.0565-1.4002 0.6561l-3.875-2.8559-1.869 1.8006c-0.2067 0.2067-0.3811 0.3811-0.7815 0.3811l0.2752-3.9435 7.1816-6.488c0.3126-0.2752-0.0697-0.4302-0.4818-0.1563l-8.875 5.5877-3.8259-1.1935c-0.83054-0.2635-0.84862-0.8305 0.17567-1.2309z" fill="#008DDD"/>
 </g>
</svg>
